X:100
T:Slave,The. RHu.100
T:Sloe,The,aka. RHu.100
S:R.Hughes MS,1823,Whitchurch,Shrops.
A:Whitchurch , Shropshire
Z:Neil Brookes 2006
M:2/4
L:1/8
Q:1/4=100
R:Country Dance
K:F
[cA]|[cA][fd][fd][ge]|[a3/2f3/2][g/e/][fd][ec]|\
[dB][cA] [d/B/][e/c/][f/d/][d/B/]|[dB][cA] [AF][cA]|!
[cA][fd][fd][ge]|[a3/2f3/2][g/e/][fd][ec]|\
[dB][cA][dB][ec]|[fd][fd][fd]::!
[cA]|[df][cA][AF][cA]|[df][cA][AF][cA]|\
[df][e/c/][d/f/] [g/e/][f/d/][e/c/][d/B/]|[dB][cA][cA][fd]|!
[fd][ec][ec][ge]|[ge][fd][fd][bg]|[af][ge][fd][ec]|[fd][fd][fd]:|

